X:2
T:Dillon Brown (also called Laington's)
R:reel
M:C|
L:1/8
K:A
cB|:"A"AFEF A3 e|"D"fece fgaf|"A"e2 ce "F#m"afec|"Bm"BAFA "E"BdcB|
"A"AFEF A2 ce|"D"fece fgaf|"A"(3efe ce "D"afec|1 "E"BdcB "A"A2 cB:|\
	[2 "E"BdcB "A"A2 ed|]
|:"A"ceAe ceAc|"E"BE (3EFE BcdB|"A"cAAG "F#m"Acec|"Bm"BABc "E"dcBd|
"A"AccB cedc|"E"B3 A  BcdB|"A"ABce "D"fefa|"E"ecc=c ^cdcB:|["End" "A"AFEF A4|]
%%text Alternate A part
"A"AFEF A3 e|"D"fece fgaf|"A"ec=c^c "F#m"afec|"Bm"afec "E"BdcB|
"A"AFEF A=c^ce|"D"fece faaf|"A"(3efe ce "D"afec|1"E"BdcB "A"A2 cB:|[2 "E"BdcB "A"A2 ed|]
%%scale .5
%%text 4/10/12 


#include "LeftHeader.h"
%%text Set 112 NEFFA 2012 French-Canadian Set
%%scale .79
$SmallLMargin
$SmallRMargin
